X: 33571
T: Rakes Of Kildare, The
R: jig
M: 6/8
K: Adorian
|:A|E2 A A^GA|Bcd e2 f|gfg e/f/ge|dBG B>AG|
E2 A A^GA|Bcd e2 f|g2 g edB|A3 A2:|
|:g|a>ea aea|a>ea b2 a|gfg ege|
[1 dBA B2 g|a2 a aea|a^ga b2 a|gfg edB|A3 A2:|
[2 dBA B>AG|E2 A A^GA|Bcd e2 f|g>fe dBG|A3 A2||

